icon-themes/breeze_svg/cmd/sc_addwatch.svg

<svg viewBox="0 0 16 16" xmlns="http://www.w3.org/2000/svg"><path d="m8 3a9 9 0 0 0 -7.87695312 4.6679688c.12894503.3637347.35743874.6765875.65625.9082031a8 8 0 0 1 7.22070312-4.5761719 4 4 0 0 0 -4 4 4 4 0 0 0 4 4 4 4 0 0 0 4-4 4 4 0 0 0 -3.6503906-4 8 8 0 0 1 6.8710936 4.5761719c.301515-.2337112.531909-.5500503.660156-.9179688a9 9 0 0 0 -7.880859-4.6582031zm0 2a3 3.0000001 0 0 1 3 3 3 3 0 0 1 -3 3 3 3 0 0 1 -3-3 3 3 0 0 1 3-3zm0 1a2 2 0 0 0 -2 2 2 2 0 0 0 2 2 1.9999999 2.0000002 0 0 0 2-2 2 2 0 0 0 0-.5878906 1 1 0 0 1 -1 .5878906 1 1 0 0 1 -1-1 1 1 0 0 1 .5898438-1 2 2 0 0 0 -.5898438 0z" fill="#4d4d4d"/></svg>

<svg xmlns="http://www.w3.org/2000/svg" viewBox="0 0 16 16">
 <path 
     style="fill:#4d4d4d" 
     d="M 8 3 A 9 9 0 0 0 0.12304688 7.6679688 C 0.25199191 8.0317035 0.48048562 8.3445563 0.77929688 8.5761719 A 8 8 0 0 1 8 4 A 4 4 0 0 0 4 8 A 4 4 0 0 0 8 12 A 4 4 0 0 0 12 8 A 4 4 0 0 0 8.3496094 4 A 8 8 0 0 1 15.220703 8.5761719 C 15.522218 8.3424607 15.752612 8.0261216 15.880859 7.6582031 A 9 9 0 0 0 8 3 z M 8 5 A 3 3.0000001 0 0 1 11 8 A 3 3 0 0 1 8 11 A 3 3 0 0 1 5 8 A 3 3 0 0 1 8 5 z M 8 6 A 2 2 0 0 0 6 8 A 2 2 0 0 0 8 10 A 1.9999999 2.0000002 0 0 0 10 8 A 2 2 0 0 0 10 7.4121094 A 1 1 0 0 1 9 8 A 1 1 0 0 1 8 7 A 1 1 0 0 1 8.5898438 6 A 2 2 0 0 0 8 6 z "
     />
 </svg>
